findly-builder/apps/searchassist/src/assets/icons/overview/empty-sources.svg

<svg width="113" height="93" viewBox="0 0 113 93" fill="none" xmlns="http://www.w3.org/2000/svg">
<rect width="113" height="93" rx="4" fill="#F3F8FF"/>
<path d="M95.215 52.71C96.35 50.555 97 48.105 97 45.5C97 38.879 92.841 33.243 86.999 31.022C86.999 31.015 87 31.008 87 31C87 19.402 77.598 10 66 10C56.216 10 48.019 16.701 45.687 25.757C44.211 25.272 42.638 25 41 25C33.308 25 26.977 30.793 26.11 38.252C20.906 39.353 17 43.969 17 49.5C17 55.851 22.149 61 28.5 61C28.677 61 28.852 60.988 29.026 60.978C29.022 61.153 29 61.324 29 61.5C29 72.822 38.178 82 49.5 82C55.937 82 61.675 79.028 65.434 74.386C67.612 76.611 70.64 78 74 78C78.65 78 82.674 75.35 84.666 71.482C85.718 71.817 86.837 72 88 72C94.075 72 99 67.075 99 61C99 57.689 97.53 54.727 95.215 52.71Z" fill="#E7F1FF"/>
<path d="M83.5 56.5V57H86.5V56.5C88.378 56.5 90.684 56.5 92 56.5C94.485 56.5 96.5 54.485 96.5 52C96.5 49.667 94.718 47.771 92.445 47.545C92.467 47.364 92.5 47.187 92.5 47C92.5 44.515 90.485 42.5 88 42.5C86.562 42.5 85.297 43.186 84.473 44.236C84.333 41.6 82.171 39.5 79.5 39.5C76.739 39.5 74.5 41.739 74.5 44.5C74.5 44.946 74.577 45.37 74.687 45.782C74.045 45.005 73.086 44.5 72 44.5C70.219 44.5 68.766 45.835 68.545 47.555C68.364 47.533 68.187 47.5 68 47.5C65.515 47.5 63.5 49.515 63.5 52C63.5 54.485 65.515 56.5 68 56.5C70.485 56.5 77.5 56.5 77.5 56.5H83.5Z" fill="white"/>
<path d="M78.0001 46C76.5971 46 75.3911 46.999 75.0871 48.341C74.7201 48.119 74.3011 48 73.8751 48C72.6731 48 71.6771 48.897 71.5221 50.068C71.3191 50.022 71.1261 50 70.9371 50C69.4081 50 68.1261 51.2 68.0191 52.732C68.0101 52.87 68.1141 52.99 68.2511 53C68.2571 53 68.2631 53 68.2691 53C68.3991 53 68.5091 52.899 68.5181 52.768C68.6071 51.497 69.6691 50.5 70.9371 50.5C71.1661 50.5 71.4071 50.542 71.6751 50.627C71.6971 50.634 71.7201 50.637 71.7421 50.637C71.7971 50.637 71.8521 50.617 71.8981 50.583C71.9621 50.537 72.0001 50.455 72.0001 50.375C72.0001 49.341 72.8411 48.5 73.8751 48.5C74.3221 48.5 74.7601 48.668 75.1061 48.973C75.1531 49.014 75.2121 49.036 75.2711 49.036C75.3031 49.036 75.3341 49.03 75.3641 49.017C75.4521 48.982 75.5121 48.9 75.5191 48.805C75.6231 47.512 76.7121 46.5 78.0001 46.5C78.2081 46.5 78.4251 46.534 78.6821 46.607C78.7051 46.614 78.7291 46.617 78.7521 46.617C78.8611 46.617 78.9591 46.544 78.9911 46.435C79.0291 46.302 78.9521 46.164 78.8191 46.126C78.5171 46.04 78.2561 46 78.0001 46ZM91.8831 47.5C90.5571 47.5 89.3751 48.397 89.0091 49.682C88.9711 49.815 89.0481 49.953 89.1811 49.991C89.2051 49.997 89.2281 50 89.2501 50C89.3591 50 89.4591 49.928 89.4901 49.818C89.7951 48.748 90.7791 48 91.8831 48C92.0001 48 92.1131 48.014 92.2251 48.029C92.2371 48.031 92.2481 48.032 92.2601 48.032C92.3811 48.032 92.4891 47.94 92.5061 47.815C92.5251 47.678 92.4291 47.552 92.2921 47.534C92.1581 47.516 92.0221 47.5 91.8831 47.5Z" fill="#BDC1C6"/>
<path d="M92.997 47.123C92.999 47.082 93 47.041 93 47C93 44.243 90.757 42 88 42C86.824 42 85.707 42.416 84.817 43.164C84.219 40.76 82.055 39 79.5 39C76.467 39 74 41.467 74 44.5C74 44.516 74 44.531 74 44.547C73.398 44.192 72.71 44 72 44C70.169 44 68.589 45.261 68.142 47.005C68.095 47.002 68.048 47 68 47C65.243 47 63 49.243 63 52C63 54.757 65.243 57 68 57H83.5C83.776 57 84 56.776 84 56.5C84 56.224 83.776 56 83.5 56H68C65.794 56 64 54.206 64 52C64 49.794 65.794 48 68 48C68.117 48 68.23 48.017 68.343 48.032L68.484 48.051C68.505 48.054 68.525 48.055 68.546 48.055C68.792 48.055 69.008 47.87 69.041 47.618C69.232 46.125 70.504 45 72 45C72.885 45 73.723 45.401 74.301 46.1C74.399 46.218 74.542 46.282 74.687 46.282C74.764 46.282 74.843 46.264 74.915 46.226C74.947 46.209 74.972 46.185 74.999 46.162C74.999 46.162 74.999 44.661 74.999 44.5C74.999 42.019 77.018 40 79.499 40C81.88 40 83.846 41.872 83.973 44.263C83.984 44.471 84.123 44.65 84.322 44.713C84.372 44.729 84.423 44.737 84.474 44.737C84.624 44.737 84.77 44.668 84.866 44.545C85.638 43.563 86.779 43 88 43C90.206 43 92 44.794 92 47C92 47.117 91.983 47.23 91.968 47.343L91.949 47.484C91.933 47.618 91.971 47.752 92.055 47.857C92.139 47.962 92.262 48.029 92.395 48.042C94.451 48.247 96 49.949 96 52C96 54.206 94.206 56 92 56H86.5C86.224 56 86 56.224 86 56.5C86 56.776 86.224 57 86.5 57H92C94.757 57 97 54.757 97 52C97 49.603 95.311 47.587 92.997 47.123Z" fill="#9AA0A6"/>
<path d="M23.5 47H13.5C13.224 47 13 46.776 13 46.5C13 46.224 13.224 46 13.5 46H23.5C23.776 46 24 46.224 24 46.5C24 46.776 23.777 47 23.5 47ZM26.5 47H25.5C25.224 47 25 46.776 25 46.5C25 46.224 25.224 46 25.5 46H26.5C26.776 46 27 46.224 27 46.5C27 46.776 26.777 47 26.5 47ZM31.491 49H22.5C22.224 49 22 48.776 22 48.5C22 48.224 22.224 48 22.5 48H31.491C31.767 48 31.991 48.224 31.991 48.5C31.991 48.776 31.767 49 31.491 49ZM20.5 49H19.5C19.224 49 19 48.776 19 48.5C19 48.224 19.224 48 19.5 48H20.5C20.776 48 21 48.224 21 48.5C21 48.776 20.777 49 20.5 49ZM17.5 49H15.5C15.224 49 15 48.776 15 48.5C15 48.224 15.224 48 15.5 48H17.5C17.776 48 18 48.224 18 48.5C18 48.776 17.777 49 17.5 49ZM23.5 51H21.5C21.224 51 21 50.776 21 50.5C21 50.224 21.224 50 21.5 50H23.5C23.776 50 24 50.224 24 50.5C24 50.776 23.776 51 23.5 51ZM26.5 42C26.323 42 25.677 42 25.5 42C25.224 42 25 42.224 25 42.5C25 42.776 25.224 43 25.5 43C25.677 43 26.323 43 26.5 43C26.776 43 27 42.776 27 42.5C27 42.224 26.776 42 26.5 42ZM26.5 44C26.323 44 21.677 44 21.5 44C21.224 44 21 44.224 21 44.5C21 44.776 21.224 45 21.5 45C21.677 45 26.323 45 26.5 45C26.776 45 27 44.776 27 44.5C27 44.224 26.776 44 26.5 44ZM31.5 46C31.323 46 28.677 46 28.5 46C28.224 46 28 46.224 28 46.5C28 46.776 28.224 47 28.5 47C28.677 47 31.323 47 31.5 47C31.776 47 32 46.776 32 46.5C32 46.224 31.776 46 31.5 46Z" fill="white"/>
<path d="M75.5 16H65.5C65.224 16 65 15.776 65 15.5C65 15.224 65.224 15 65.5 15H75.5C75.776 15 76 15.224 76 15.5C76 15.776 75.776 16 75.5 16ZM81.5 16H77.5C77.224 16 77 15.776 77 15.5C77 15.224 77.224 15 77.5 15H81.5C81.776 15 82 15.224 82 15.5C82 15.776 81.776 16 81.5 16ZM84.5 18H74.5C74.224 18 74 17.776 74 17.5C74 17.224 74.224 17 74.5 17H84.5C84.776 17 85 17.224 85 17.5C85 17.776 84.777 18 84.5 18ZM72.5 18H71.5C71.224 18 71 17.776 71 17.5C71 17.224 71.224 17 71.5 17H72.5C72.776 17 73 17.224 73 17.5C73 17.776 72.776 18 72.5 18ZM69.47 18H67.5C67.224 18 67 17.776 67 17.5C67 17.224 67.224 17 67.5 17H69.47C69.746 17 69.97 17.224 69.97 17.5C69.97 17.776 69.746 18 69.47 18ZM78.5 14H73.5C73.224 14 73 13.776 73 13.5C73 13.224 73.224 13 73.5 13H78.5C78.776 13 79 13.224 79 13.5C79 13.776 78.777 14 78.5 14ZM75.5 20H73.5C73.224 20 73 19.776 73 19.5C73 19.224 73.224 19 73.5 19H75.5C75.776 19 76 19.224 76 19.5C76 19.776 75.776 20 75.5 20Z" fill="white"/>
<path d="M74.5194 67.8504H47.0004C45.4294 67.8504 44.1504 66.5724 44.1504 65.0004C44.1504 63.4284 45.4284 62.1504 47.0004 62.1504H74.5314L74.1714 62.5644C73.5774 63.2484 73.2504 64.1124 73.2504 65.0004C73.2504 65.8874 73.5744 66.7534 74.1634 67.4374L74.5194 67.8504Z" fill="white"/>
<path d="M44 62V26.8219C44 25.2654 45.2901 24 46.877 24H73.123C74.7089 24 76 25.2654 76 26.8219V60.7336H46.877C45.9735 60.7336 45.1235 61.0495 44.4169 61.6465L44 62Z" fill="#FFBCA5"/>
<path d="M53.0004 24.1504H47.0004C45.4294 24.1504 44.1504 25.4284 44.1504 27.0004V62.5294L44.5634 62.1734C45.2624 61.5694 46.1054 61.2514 47.0004 61.2514H53.0004V24.1504Z" fill="#FFF1ED"/>
<path d="M76.599 62.431C76.834 62.394 77 62.181 77 61.944V27C77 24.791 75.209 23 73 23H47C44.791 23 43 24.791 43 27V65C43 65.552 43.112 66.078 43.314 66.557C43.516 67.036 43.809 67.467 44.171 67.828C44.352 68.009 44.55 68.173 44.763 68.316C45.189 68.604 45.672 68.811 46.193 68.918C46.454 68.972 46.724 69 47 69C47.087 69 76.235 69 76.3 69C76.686 69 76.999 68.687 77 68.301C77 68.301 77 68.301 77 68.3C77 68.299 77 68.3 77 68.3C77 68.297 76.998 68.294 76.998 68.291C76.993 67.916 76.724 67.613 76.359 67.52C75.235 67.234 74.4 66.213 74.4 65C74.4 63.703 75.355 62.624 76.599 62.431ZM47 24.4H73C74.436 24.4 75.6 25.564 75.6 27V61C75.6 61 49.03 61 47 61C46.002 61 45.101 61.379 44.4 61.983V27C44.4 25.564 45.564 24.4 47 24.4ZM47 67.6C45.566 67.6 44.4 66.434 44.4 65C44.4 63.566 45.566 62.4 47 62.4H73.983C73.376 63.098 73 64.001 73 65C73 65.996 73.371 66.9 73.974 67.6H47Z" fill="#59141C"/>
<path d="M52.625 51C52.418 51 52.25 50.832 52.25 50.625V40.375C52.25 40.168 52.418 40 52.625 40C52.832 40 53 40.168 53 40.375V50.625C53 50.832 52.832 51 52.625 51ZM52.625 56C52.418 56 52.25 55.832 52.25 55.625V54.375C52.25 54.168 52.418 54 52.625 54C52.832 54 53 54.168 53 54.375V55.625C53 55.832 52.832 56 52.625 56ZM52.625 59C52.418 59 52.25 58.832 52.25 58.625V57.375C52.25 57.168 52.418 57 52.625 57C52.832 57 53 57.168 53 57.375V58.625C53 58.832 52.832 59 52.625 59ZM73.625 65H54.375C54.168 65 54 64.832 54 64.625C54 64.418 54.168 64.25 54.375 64.25H73.625C73.832 64.25 74 64.418 74 64.625C74 64.832 73.832 65 73.625 65ZM73.625 66.75H61.375C61.168 66.75 61 66.582 61 66.375C61 66.168 61.168 66 61.375 66H73.625C73.832 66 74 66.168 74 66.375C74 66.582 73.832 66.75 73.625 66.75ZM59.625 66.75H58.375C58.168 66.75 58 66.582 58 66.375C58 66.168 58.168 66 58.375 66H59.625C59.832 66 60 66.168 60 66.375C60 66.582 59.832 66.75 59.625 66.75Z" fill="#59141C"/>
<path d="M48.25 22.25H58.75V42.75L53.5 40.375L48.25 42.75V22.25Z" fill="#FFED96"/>
<path d="M58.625 43C58.574 43 58.522 42.99 58.475 42.968L53.5 40.785L48.525 42.969C48.41 43.02 48.275 43.009 48.17 42.94C48.063 42.87 48 42.751 48 42.625V22.375C48 22.168 48.168 22 48.375 22H58.625C58.832 22 59 22.168 59 22.375V42.625C59 42.751 58.937 42.87 58.83 42.939C58.769 42.979 58.696 43 58.625 43ZM53.5 40C53.552 40 53.603 40.011 53.65 40.032L58.25 42.051V22.75H48.75V42.051L53.35 40.032C53.397 40.011 53.448 40 53.5 40Z" fill="#59141C"/>
<path d="M45.5 69.5C45.5 69.5 47.067 69.5 49 69.5C50.933 69.5 52.5 67.933 52.5 66C52.5 64.219 51.165 62.766 49.445 62.545C49.473 62.366 49.5 62.187 49.5 62C49.5 60.067 47.933 58.5 46 58.5C44.968 58.5 44.05 58.955 43.41 59.665C43.026 57.857 41.423 56.5 39.5 56.5C37.291 56.5 35.5 58.291 35.5 60.5C35.5 60.691 35.53 60.874 35.556 61.058C35.128 60.714 34.592 60.5 34 60.5C32.772 60.5 31.755 61.387 31.545 62.555C31.366 62.527 31.187 62.5 31 62.5C29.067 62.5 27.5 64.067 27.5 66C27.5 67.933 29.067 69.5 31 69.5C32.933 69.5 38.5 69.5 38.5 69.5V70H45.5V69.5Z" fill="white"/>
<path d="M47.25 65.0002C47.112 65.0002 47 64.8882 47 64.7502C47 63.5272 47.995 62.5322 49.218 62.5322C49.252 62.5412 49.955 62.5312 50.462 62.6682C50.595 62.7042 50.674 62.8412 50.638 62.9742C50.602 63.1082 50.465 63.1872 50.332 63.1502C49.888 63.0302 49.232 63.0302 49.219 63.0322C48.271 63.0322 47.5 63.8032 47.5 64.7502C47.5 64.8882 47.388 65.0002 47.25 65.0002ZM40.5 69.0002C40.3674 69.0002 40.2402 69.0529 40.1464 69.1467C40.0527 69.2404 40 69.3676 40 69.5002C40 69.6328 40.0527 69.76 40.1464 69.8538C40.2402 69.9476 40.3674 70.0002 40.5 70.0002C40.6326 70.0002 40.7598 69.9476 40.8536 69.8538C40.9473 69.76 41 69.6328 41 69.5002C41 69.3676 40.9473 69.2404 40.8536 69.1467C40.7598 69.0529 40.6326 69.0002 40.5 69.0002Z" fill="#BDC1C6"/>
<path d="M49 70H45.5C45.224 70 45 69.776 45 69.5C45 69.224 45.224 69 45.5 69H49C50.654 69 52 67.654 52 66C52 64.504 50.875 63.232 49.382 63.041C49.248 63.023 49.127 62.953 49.046 62.845C48.965 62.737 48.931 62.601 48.952 62.468C48.975 62.314 49 62.16 49 62C49 60.346 47.654 59 46 59C45.15 59 44.362 59.355 43.781 60C43.656 60.139 43.46 60.198 43.281 60.148C43.099 60.099 42.96 59.953 42.921 59.769C42.58 58.165 41.141 57 39.5 57C37.57 57 36 58.57 36 60.5C36 60.643 36.021 60.78 36.041 60.918C36.07 61.121 35.978 61.356 35.799 61.458C35.62 61.56 35.403 61.576 35.243 61.448C34.878 61.155 34.449 61 34 61C33.034 61 32.208 61.691 32.037 62.644C31.989 62.911 31.741 63.09 31.468 63.049C31.314 63.025 31.16 63 31 63C29.346 63 28 64.346 28 66C28 67.654 29.346 69 31 69H38.5C38.776 69 39 69.224 39 69.5C39 69.776 38.776 70 38.5 70H31C28.794 70 27 68.206 27 66C27 63.794 28.794 62 31 62C31.059 62 31.116 62.002 31.174 62.006C31.588 60.82 32.711 60 34 60C34.349 60 34.689 60.061 35.011 60.18C35.176 57.847 37.126 56 39.5 56C41.331 56 42.966 57.127 43.653 58.774C44.333 58.276 45.155 58 46 58C48.206 58 50 59.794 50 62C50 62.048 49.999 62.095 49.996 62.142C51.739 62.59 53 64.169 53 66C53 68.206 51.206 70 49 70Z" fill="#9AA0A6"/>
<path d="M43.5 69C43.341 69 42.659 69 42.5 69C42.224 69 42 69.224 42 69.5C42 69.776 42.224 70 42.5 70C42.659 70 43.341 70 43.5 70C43.776 70 44 69.776 44 69.5C44 69.224 43.776 69 43.5 69Z" fill="#BDC1C6"/>
</svg>

<svg width="113" height="93" fill="none" xmlns="http://www.w3.org/2000/svg"><rect width="113" height="93" rx="4" fill="#F3F8FF"/><path d="M95.215 52.71A15.423 15.423 0 0 0 97 45.5c0-6.621-4.159-12.257-10.001-14.478L87 31c0-11.598-9.402-21-21-21-9.784 0-17.981 6.701-20.313 15.757A14.982 14.982 0 0 0 41 25c-7.692 0-14.023 5.793-14.89 13.252C20.906 39.353 17 43.969 17 49.5 17 55.851 22.149 61 28.5 61c.177 0 .352-.012.526-.022-.004.175-.026.346-.026.522C29 72.822 38.178 82 49.5 82c6.437 0 12.175-2.972 15.934-7.614A11.948 11.948 0 0 0 74 78c4.65 0 8.674-2.65 10.666-6.518 1.052.335 2.171.518 3.334.518 6.075 0 11-4.925 11-11 0-3.311-1.47-6.273-3.785-8.29Z" fill="#E7F1FF"/><path d="M83.5 56.5v.5h3v-.5H92a4.5 4.5 0 0 0 4.5-4.5c0-2.333-1.782-4.229-4.055-4.455.022-.181.055-.358.055-.545a4.5 4.5 0 0 0-4.5-4.5c-1.438 0-2.703.686-3.527 1.736-.14-2.636-2.302-4.736-4.973-4.736a5 5 0 0 0-5 5c0 .446.077.87.187 1.282A3.477 3.477 0 0 0 72 44.5a3.489 3.489 0 0 0-3.455 3.055c-.181-.022-.358-.055-.545-.055a4.5 4.5 0 0 0 0 9h15.5Z" fill="#fff"/><path d="M78 46c-1.403 0-2.609.999-2.913 2.341A2.344 2.344 0 0 0 73.875 48a2.377 2.377 0 0 0-2.353 2.068 2.63 2.63 0 0 0-.585-.068 2.94 2.94 0 0 0-2.918 2.732.252.252 0 0 0 .232.268h.018a.25.25 0 0 0 .25-.232 2.44 2.44 0 0 1 2.418-2.268c.23 0 .47.042.738.127.022.007.045.01.067.01a.26.26 0 0 0 .258-.262c0-1.034.841-1.875 1.875-1.875.447 0 .885.168 1.231.473a.252.252 0 0 0 .165.063.231.231 0 0 0 .093-.019.247.247 0 0 0 .155-.212C75.623 47.512 76.712 46.5 78 46.5c.208 0 .425.034.682.107a.25.25 0 0 0 .137-.481A2.94 2.94 0 0 0 78 46Zm13.883 1.5a3.007 3.007 0 0 0-2.874 2.182.25.25 0 1 0 .481.136A2.505 2.505 0 0 1 91.883 48c.117 0 .23.014.342.029a.251.251 0 0 0 .281-.214.249.249 0 0 0-.214-.281 3.063 3.063 0 0 0-.409-.034Z" fill="#BDC1C6"/><path d="M92.997 47.123 93 47c0-2.757-2.243-5-5-5a4.932 4.932 0 0 0-3.183 1.164A5.486 5.486 0 0 0 79.5 39a5.506 5.506 0 0 0-5.5 5.5v.047A3.933 3.933 0 0 0 72 44a3.998 3.998 0 0 0-3.858 3.005A2.22 2.22 0 0 0 68 47c-2.757 0-5 2.243-5 5s2.243 5 5 5h15.5a.5.5 0 0 0 0-1H68c-2.206 0-4-1.794-4-4s1.794-4 4-4c.117 0 .23.017.343.032l.141.019a.502.502 0 0 0 .557-.433A2.996 2.996 0 0 1 72 45c.885 0 1.723.401 2.301 1.1a.503.503 0 0 0 .614.126c.032-.017.057-.041.084-.064V44.5c0-2.481 2.019-4.5 4.5-4.5 2.381 0 4.347 1.872 4.474 4.263a.5.5 0 0 0 .893.282C85.638 43.563 86.779 43 88 43c2.206 0 4 1.794 4 4 0 .117-.017.23-.032.343l-.019.141a.5.5 0 0 0 .446.558A3.976 3.976 0 0 1 96 52c0 2.206-1.794 4-4 4h-5.5a.5.5 0 0 0 0 1H92c2.757 0 5-2.243 5-5a4.966 4.966 0 0 0-4.003-4.877Z" fill="#9AA0A6"/><path d="M23.5 47h-10a.5.5 0 0 1 0-1h10a.5.5 0 0 1 0 1Zm3 0h-1a.5.5 0 0 1 0-1h1a.5.5 0 0 1 0 1Zm4.991 2H22.5a.5.5 0 0 1 0-1h8.991a.5.5 0 0 1 0 1ZM20.5 49h-1a.5.5 0 0 1 0-1h1a.5.5 0 0 1 0 1Zm-3 0h-2a.5.5 0 0 1 0-1h2a.5.5 0 0 1 0 1Zm6 2h-2a.5.5 0 0 1 0-1h2a.5.5 0 0 1 0 1Zm3-9h-1a.5.5 0 0 0 0 1h1a.5.5 0 0 0 0-1Zm0 2h-5a.5.5 0 0 0 0 1h5a.5.5 0 0 0 0-1Zm5 2h-3a.5.5 0 0 0 0 1h3a.5.5 0 0 0 0-1Zm44-30h-10a.5.5 0 0 1 0-1h10a.5.5 0 0 1 0 1Zm6 0h-4a.5.5 0 0 1 0-1h4a.5.5 0 0 1 0 1Zm3 2h-10a.5.5 0 0 1 0-1h10a.5.5 0 0 1 0 1Zm-12 0h-1a.5.5 0 0 1 0-1h1a.5.5 0 0 1 0 1Zm-3.03 0H67.5a.5.5 0 0 1 0-1h1.97a.5.5 0 0 1 0 1Zm9.03-4h-5a.5.5 0 0 1 0-1h5a.5.5 0 0 1 0 1Zm-3 6h-2a.5.5 0 0 1 0-1h2a.5.5 0 0 1 0 1Zm-.98 47.85H47A2.853 2.853 0 0 1 44.15 65 2.853 2.853 0 0 1 47 62.15h27.531l-.36.414a3.719 3.719 0 0 0-.92 2.436c0 .887.323 1.753.912 2.437l.356.413Z" fill="#fff"/><path d="M44 62V26.822C44 25.265 45.29 24 46.877 24h26.246C74.709 24 76 25.265 76 26.822v33.912H46.877c-.904 0-1.754.316-2.46.913L44 62Z" fill="#FFBCA5"/><path d="M53 24.15h-6A2.853 2.853 0 0 0 44.15 27v35.53l.413-.357A3.687 3.687 0 0 1 47 61.251h6v-37.1Z" fill="#FFF1ED"/><path d="M76.599 62.431a.488.488 0 0 0 .401-.487V27a4 4 0 0 0-4-4H47a4 4 0 0 0-4 4v38a3.997 3.997 0 0 0 4 4h29.3a.7.7 0 0 0 .7-.699V68.3c0-.001 0 0 0 0l-.002-.009c-.005-.375-.274-.678-.639-.771A2.605 2.605 0 0 1 74.4 65c0-1.297.955-2.376 2.199-2.569ZM47 24.4h26a2.6 2.6 0 0 1 2.6 2.6v34H47c-.998 0-1.899.379-2.6.983V27a2.6 2.6 0 0 1 2.6-2.6Zm0 43.2a2.602 2.602 0 0 1-2.6-2.6c0-1.434 1.166-2.6 2.6-2.6h26.983A3.945 3.945 0 0 0 73 65c0 .996.371 1.9.974 2.6H47Z" fill="#59141C"/><path d="M52.625 51a.375.375 0 0 1-.375-.375v-10.25a.375.375 0 0 1 .75 0v10.25a.375.375 0 0 1-.375.375Zm0 5a.375.375 0 0 1-.375-.375v-1.25a.375.375 0 0 1 .75 0v1.25a.375.375 0 0 1-.375.375Zm0 3a.375.375 0 0 1-.375-.375v-1.25a.375.375 0 0 1 .75 0v1.25a.375.375 0 0 1-.375.375Zm21 6h-19.25a.375.375 0 0 1 0-.75h19.25a.375.375 0 0 1 0 .75Zm0 1.75h-12.25a.375.375 0 0 1 0-.75h12.25a.375.375 0 0 1 0 .75Zm-14 0h-1.25a.375.375 0 0 1 0-.75h1.25a.375.375 0 0 1 0 .75Z" fill="#59141C"/><path d="M48.25 22.25h10.5v20.5l-5.25-2.375-5.25 2.375v-20.5Z" fill="#FFED96"/><path d="M58.625 43a.355.355 0 0 1-.15-.032L53.5 40.785l-4.975 2.184a.374.374 0 0 1-.525-.344v-20.25c0-.207.168-.375.375-.375h10.25c.207 0 .375.168.375.375v20.25a.373.373 0 0 1-.375.375ZM53.5 40c.052 0 .103.011.15.032l4.6 2.019V22.75h-9.5v19.301l4.6-2.019A.367.367 0 0 1 53.5 40Z" fill="#59141C"/><path d="M45.5 69.5H49a3.5 3.5 0 0 0 3.5-3.5 3.489 3.489 0 0 0-3.055-3.455c.028-.179.055-.358.055-.545a3.5 3.5 0 0 0-3.5-3.5c-1.032 0-1.95.455-2.59 1.165a3.999 3.999 0 0 0-7.91.835c0 .191.03.374.056.558A2.473 2.473 0 0 0 34 60.5a2.496 2.496 0 0 0-2.455 2.055A3.495 3.495 0 0 0 31 62.5a3.5 3.5 0 1 0 0 7h7.5v.5h7v-.5Z" fill="#fff"/><path d="M47.25 65a.25.25 0 0 1-.25-.25 2.22 2.22 0 0 1 2.218-2.218c.034.01.737 0 1.244.136a.25.25 0 0 1-.13.482c-.444-.12-1.1-.12-1.113-.118A1.72 1.72 0 0 0 47.5 64.75a.25.25 0 0 1-.25.25Zm-6.75 4a.5.5 0 1 0 0 1 .5.5 0 0 0 0-1Z" fill="#BDC1C6"/><path d="M49 70h-3.5a.5.5 0 0 1 0-1H49c1.654 0 3-1.346 3-3a2.996 2.996 0 0 0-2.618-2.959.502.502 0 0 1-.43-.573c.023-.154.048-.308.048-.468 0-1.654-1.346-3-3-3-.85 0-1.638.355-2.219 1a.498.498 0 0 1-.86-.231A3.514 3.514 0 0 0 39.5 57c-1.93 0-3.5 1.57-3.5 3.5 0 .143.021.28.041.418.029.203-.063.438-.242.54-.179.102-.396.118-.556-.01A1.97 1.97 0 0 0 34 61c-.966 0-1.792.691-1.963 1.644a.498.498 0 0 1-.569.405C31.314 63.025 31.16 63 31 63c-1.654 0-3 1.346-3 3s1.346 3 3 3h7.5a.5.5 0 0 1 0 1H31c-2.206 0-4-1.794-4-4a4.004 4.004 0 0 1 4.174-3.994A2.993 2.993 0 0 1 34 60c.349 0 .689.061 1.011.18A4.506 4.506 0 0 1 39.5 56a4.523 4.523 0 0 1 4.153 2.774A3.979 3.979 0 0 1 46 58a4.004 4.004 0 0 1 3.996 4.142A3.999 3.999 0 0 1 53 66c0 2.206-1.794 4-4 4Z" fill="#9AA0A6"/><path d="M43.5 69h-1a.5.5 0 0 0 0 1h1a.5.5 0 0 0 0-1Z" fill="#BDC1C6"/></svg>
